core/assets/icons/confidentiality.svg

<svg width="24" height="24" viewBox="0 0 24 24" xmlns="http://www.w3.org/2000/svg"><g id="confidentiality"><path id="Vector" d="M17 13C17.7911 13 18.5645 13.2346 19.2223 13.6741C19.8801 14.1136 20.3928 14.7384 20.6955 15.4693C20.9983 16.2002 21.0775 17.0044 20.9231 17.7804C20.7688 18.5563 20.3878 19.269 19.8284 19.8284C19.269 20.3878 18.5563 20.7688 17.7804 20.9231C17.0044 21.0775 16.2002 20.9983 15.4693 20.6955C14.7384 20.3928 14.1136 19.8801 13.6741 19.2223C13.2346 18.5645 13 17.7911 13 17H11C10.9996 17.9704 10.6465 18.9077 10.0063 19.637C9.36617 20.3664 8.48269 20.8382 7.5205 20.9644C6.55831 21.0907 5.58302 20.8629 4.77635 20.3234C3.96968 19.7839 3.38664 18.9696 3.13586 18.0321C2.88509 17.0946 2.98368 16.0979 3.41326 15.2278C3.84285 14.3576 4.57414 13.6732 5.47087 13.3023C6.36761 12.9313 7.36863 12.8989 8.28743 13.2113C9.20623 13.5236 9.98016 14.1594 10.465 15H13.535C13.886 14.3917 14.3911 13.8865 14.9993 13.5354C15.6076 13.1843 16.2977 12.9996 17 13V13ZM7 15C6.46957 15 5.96086 15.2107 5.58579 15.5858C5.21071 15.9609 5 16.4696 5 17C5 17.5304 5.21071 18.0391 5.58579 18.4142C5.96086 18.7893 6.46957 19 7 19C7.53043 19 8.03914 18.7893 8.41421 18.4142C8.78929 18.0391 9 17.5304 9 17C9 16.4696 8.78929 15.9609 8.41421 15.5858C8.03914 15.2107 7.53043 15 7 15ZM17 15C16.4696 15 15.9609 15.2107 15.5858 15.5858C15.2107 15.9609 15 16.4696 15 17C15 17.5304 15.2107 18.0391 15.5858 18.4142C15.9609 18.7893 16.4696 19 17 19C17.5304 19 18.0391 18.7893 18.4142 18.4142C18.7893 18.0391 19 17.5304 19 17C19 16.4696 18.7893 15.9609 18.4142 15.5858C18.0391 15.2107 17.5304 15 17 15ZM16 3C17.0609 3 18.0783 3.42143 18.8284 4.17157C19.5786 4.92172 20 5.93913 20 7V10H22V12H2V10H4V7C4 5.93913 4.42143 4.92172 5.17157 4.17157C5.92172 3.42143 6.93913 3 8 3H16ZM16 5H8C6.946 5 6 5.95 6 7V10H18V7C18 5.946 17.05 5 16 5Z"/></g></svg>

<svg xmlns="http://www.w3.org/2000/svg" width="24" height="24" fill="none"><path fill="#191C22" d="M17 13a4 4 0 1 1-4 4h-2a4 4 0 1 1-.535-2h3.07A3.999 3.999 0 0 1 17 13ZM7 15a2 2 0 1 0 0 4 2 2 0 0 0 0-4Zm10 0a2 2 0 1 0 0 4 2 2 0 0 0 0-4ZM16 3a4 4 0 0 1 4 4v3h2v2H2v-2h2V7a4 4 0 0 1 4-4h8Zm0 2H8c-1.054 0-2 .95-2 2v3h12V7c0-1.054-.95-2-2-2Z"/></svg>
